X:1
T:Little Sir Hugh
B:One Hundred English Folksongs, Ed C Sharp, ISBN 0-486-23192-5
Z:Cecil Sharp
F:http://www.folkinfo.org/songs
M:6/8
L:1/8
K:Ador
(B/c/) |(de) d (BA) B |(GGD) D2 (B/c/) |(de) d cA G | (A3 A2)
w:It_ rains _it rains_ in mer-ry Lin-coln, It_ rains _both great_ and small,_
A |(de) d (BA) B |G2 D D2 D |(GA) B cB A | (A3 A)  |]
w:When all_ the boys_ come out to play, To play_ and toss_ their ball
